X: 1
T: Policeman's Holiday, The
M: 6/8
L: 1/8
R: jig
K: Gmaj
g||dBG DGB|gfa gdB|ecA EAc|eg/2g/2g gfe|
dBG DGc|B2d dcB|A^ce ~a3|fe^c dd/2d/2d:||
~g3 fdg|ecg dBA |GBd gfe|dBA GBd|
gea fdg|~e3 dcB|A^ce ~a3|fd^c ded:||
Bc^c dbf|agd f=fe|dbf agd|f=fe bge|
dbf agd|B2g gdB|A^ce ~a3|1fd^c d2z:|2fd^c d2g||
